X:052
T: Drunk at Night and Dry in the Morning
N: O'Farrell's Pocket Companion v.1 (Sky ed. p.41)
N: "Irish"
M: 6/8
L: 1/8
Q: 120 % "slow"
K: D
d/e/|fdB AGF|Eee e2 d/e/|fdB AFA|Bdd d2 :|
A|dfa dfa | dfa afe|dfa dfa|bee e2 f/e/|dfa dfa|
dfa Ha2g|fdB AGF|Eee e2 d/e/|fdB AFA |Bdd d2F|
G B/G/B/G/ F A/F/A/F/|Eee e2 d/e/|fdB AFA|Bdd d2 :|
